app/dist/common/images/enbw-energie-bad-wue-on.svg

<svg height="18" viewBox="0 0 18 18" width="18" xmlns="http://www.w3.org/2000/svg"><path d="m0 0h18v18h-18z" fill="#f0f3fa"/><path d="m7.72 9.02c-.43-.45-.72-1-.72-1.67 0-1.31 1.1-2.35 2.5-2.35h3.5v1.4h-3.5c-.54 0-1.01.4-1.01.95 0 .5.43.95 1 .95h2.51v1.4h-2.5c-.54 0-1.01.4-1.01.95 0 .5.43.95 1 .95h3.51v1.4h-3.5c-1.4 0-2.5-1.04-2.5-2.35 0-.59.24-1.18.72-1.63z" fill="#009"/><path d="m6 9h-2.54c-.12 0-.46.22-.46.48s.34.52.46.52h2.54z" fill="#f90"/></svg>

<!-- by TradingView --><svg width="18" height="18" viewBox="0 0 18 18" xmlns="http://www.w3.org/2000/svg"><path fill="#F0F3FA" d="M0 0h18v18H0z"/><path d="M7.72 9.02c-.43-.45-.72-1-.72-1.67C7 6.04 8.1 5 9.5 5H13v1.4H9.5c-.54 0-1.01.4-1.01.95 0 .5.43.95 1 .95H12v1.4H9.5c-.54 0-1.01.4-1.01.95 0 .5.43.95 1 .95H13V13H9.5C8.1 13 7 11.96 7 10.65c0-.59.24-1.18.72-1.63Z" fill="#009"/><path d="M6 9H3.46c-.12 0-.46.22-.46.48s.34.52.46.52H6V9Z" fill="#F90"/></svg>
